X: 83
T: I'm in the shower
C: Eric Lander
M: 4/4
L: 1/4
V: 1
V: 2
K: A
V: 1
g g a3/4 z1/4 c | d/ z/ g2 z|
V: 2
^e _f e f | ^e E,, e' e |
V: 1
_b B =b b | ^^C __ F c f |
V: 2
^G,/ =g'/ z2 | F,,3/2 ^^a/2 =A a|